X: 1
T: The Hyperactive Reel
T: 8x32R 3C
P: The Hyperactive Reel
C: by Sarah Garrett
C: Arr. T. Traub 10-27-2011
R: reel
M: 4/4
K: G
L: 1/8
d\
| "G"gBc^c defg | "Am"agfe "D"fd d2 | "G"gBc^c dGAB | "Am"cBAG "D"FA D2 |
| "G"gBc^c defg | "Am"agfe "D"fd d2 | "G"gdBd "C"ecAc | "D"BGAF "G"G4 |]
[| "G"DEGA Bded | "Am"cBAG "D"FA D2 | "G"DEGA Bded | "D"cBAd "G"BG G2 |
| "G"DEGA "Em"Bded | "Am"cBAG "D"FAdf | "G"gdBd "C"ecAc | "D"BGAF "G"G3 |]
